public/assets/techs/graphql.svg

<svg width="20" height="20" viewBox="0 0 20 20" fill="none" xmlns="http://www.w3.org/2000/svg">
<g clip-path="url(#clip0_310_8)">
<path d="M11.7092 2.2925L15.8217 4.6675C16.5017 3.95167 17.6325 3.92333 18.3483 4.60333C18.4717 4.72 18.5767 4.85417 18.6625 5.00083C19.1533 5.8575 18.8558 6.95 17.9992 7.44083C17.8542 7.52417 17.6983 7.58667 17.5342 7.62667V12.3758C18.4892 12.6033 19.0792 13.5617 18.8508 14.5167C18.8108 14.6867 18.745 14.85 18.6575 15.0008C18.1642 15.8533 17.0733 16.1458 16.2183 15.6525C16.055 15.5583 15.9058 15.4367 15.78 15.295L11.6925 17.655C12.0025 18.5917 11.4942 19.6008 10.5583 19.91C10.3775 19.9692 10.19 20 10 20C9.01583 20.0008 8.2175 19.2042 8.21667 18.22C8.21667 18.0492 8.24083 17.8783 8.29 17.7125L4.17667 15.34C3.49667 16.0517 2.3675 16.0792 1.655 15.3983C0.943332 14.7183 0.916666 13.5892 1.59667 12.8767C1.8325 12.6292 2.135 12.455 2.46667 12.3742L2.4675 7.625C1.50917 7.395 0.919165 6.43083 1.15 5.47167C1.18917 5.30667 1.2525 5.1475 1.33667 5C1.83 4.14667 2.92167 3.855 3.77583 4.34833C3.92333 4.4325 4.05833 4.53833 4.17583 4.6625L8.29083 2.2875C8.01083 1.34333 8.55 0.352501 9.49167 0.073334C9.65583 0.0241673 9.82833 6.53853e-07 10 6.53853e-07C10.9842 -0.00083268 11.7825 0.795001 11.7833 1.77833C11.7842 1.9525 11.7583 2.12667 11.7092 2.2925ZM11.28 3.02333C11.2642 3.04083 11.2492 3.05583 11.2317 3.07167L16.6158 12.3967C16.6375 12.3892 16.6625 12.3833 16.6842 12.3775V7.62167C15.73 7.38583 15.1492 6.42 15.3858 5.465C15.3908 5.445 15.3958 5.42417 15.4017 5.405L11.28 3.02333V3.02333ZM8.7675 3.0725L8.7175 3.0225L4.59583 5.39917C4.86833 6.345 4.32333 7.33083 3.37833 7.60333C3.35667 7.61 3.33583 7.615 3.315 7.62083V12.3775L3.385 12.3967L8.76917 3.07167L8.7675 3.0725V3.0725ZM10.4975 3.495C10.1725 3.58833 9.82833 3.58833 9.50417 3.495L4.12083 12.8192C4.36583 13.055 4.53917 13.3567 4.62083 13.6867H15.38C15.4608 13.355 15.6358 13.0525 15.8825 12.8167L10.4975 3.495ZM11.3192 17.0175L15.4133 14.6525C15.4008 14.6133 15.3908 14.5742 15.3817 14.5342H4.61833L4.60083 14.6033L8.71667 16.98C9.04 16.6433 9.495 16.4358 10 16.4358C10.5225 16.4358 10.9917 16.66 11.3192 17.0175Z" fill="#EEEEEE"/>
</g>
<defs>
<clipPath id="clip0_310_8">
<rect width="20" height="20" fill="white"/>
</clipPath>
</defs>
</svg>

<svg xmlns="http://www.w3.org/2000/svg" width="20" height="20" fill="none" xmlns:v="https://vecta.io/nano"><g clip-path="url(#A)"><path d="M11.709 2.293l4.113 2.375c.68-.716 1.811-.744 2.527-.064a1.79 1.79 0 0 1 .314.397 1.79 1.79 0 0 1-.663 2.44c-.145.083-.301.146-.465.186v4.749c.955.228 1.545 1.186 1.317 2.141-.04.17-.106.333-.193.484-.493.853-1.584 1.145-2.439.652-.163-.094-.312-.216-.438-.357l-4.087 2.36c.31.937-.198 1.946-1.134 2.255A1.79 1.79 0 0 1 10 20a1.78 1.78 0 0 1-1.783-1.78c0-.171.024-.342.073-.508L4.177 15.34c-.68.712-1.809.739-2.522.058s-.738-1.809-.058-2.522c.236-.247.538-.422.87-.502l.001-4.749C1.509 7.395.919 6.431 1.15 5.472c.039-.165.103-.324.187-.472.493-.853 1.585-1.145 2.439-.652.147.084.282.19.4.314l4.115-2.375A1.78 1.78 0 0 1 9.492.073C9.656.024 9.828 0 10 0a1.78 1.78 0 0 1 1.783 1.778c.001.174-.025.348-.074.514zm-.429.731c-.016.018-.031.032-.048.048l5.384 9.325c.022-.007.047-.013.068-.019V7.622a1.78 1.78 0 0 1-1.298-2.157l.016-.06-4.122-2.382zm-2.512.049l-.05-.05-4.122 2.377a1.78 1.78 0 0 1-1.218 2.204l-.063.018v4.757l.07.019 5.384-9.325-.002.001zm1.73.423c-.325.093-.669.093-.993 0l-5.383 9.324a1.81 1.81 0 0 1 .5.867H15.38a1.79 1.79 0 0 1 .502-.87l-5.385-9.322zm.822 13.522l4.094-2.365-.032-.118H4.618l-.018.069 4.116 2.377A1.77 1.77 0 0 1 10 16.436c.523 0 .992.224 1.319.582z" fill="#e20799"/></g><defs><clipPath id="A"><path fill="#fff" d="M0 0h20v20H0z"/></clipPath></defs></svg>
